svgs/sharp-solid/down-to-dotted-line.svg

<svg xmlns="http://www.w3.org/2000/svg" viewBox="0 0 448 512"><!--! Font Awesome Pro 6.6.0 by @fontawesome - https://fontawesome.com License - https://fontawesome.com/license (Commercial License) Copyright 2024 Fonticons, Inc. --><path d="M64 480l0-64L0 416l0 64 64 0zm96 0l0-64-64 0 0 64 64 0zm32 0l64 0 0-64-64 0 0 64zm160 0l0-64-64 0 0 64 64 0zm32 0l64 0 0-64-64 0 0 64zM64 224L224 384 384 224l0-32-96 0 0-160L160 32l0 160-96 0 0 32z"/></svg>

<svg xmlns="http://www.w3.org/2000/svg" viewBox="0 0 448 512"><!--! Font Awesome Pro 6.4.2 by @fontawesome - https://fontawesome.com License - https://fontawesome.com/license (Commercial License) Copyright 2023 Fonticons, Inc. --><path d="M64 480V416H0v64H64zm96 0V416H96v64h64zm32 0h64V416H192v64zm160 0V416H288v64h64zm32 0h64V416H384v64zM64 224L224 384 384 224V192H288V32H160V192H64v32z"/></svg>
